source/images/decathlon-logo.svg

<?xml version="1.0" encoding="utf-8"?>
<!-- Generator: Adobe Illustrator 20.1.0, SVG Export Plug-In . SVG Version: 6.00 Build 0)  -->
<svg version="1.1" id="Layer_1" xmlns="http://www.w3.org/2000/svg" xmlns:xlink="http://www.w3.org/1999/xlink" x="0px" y="0px"
	 viewBox="0 0 189 47" style="enable-background:new 0 0 189 47;" xml:space="preserve">
<style type="text/css">
	.st0{fill:#0080C4;}
	.st1{fill:#FFFFFF;}
</style>
<title>Artboard 1</title>
<g>
	<path class="st0" d="M0,47V0h189v47H0z"/>
	<path class="st1" d="M33.3,21.2c-0.4-2.8-1.6-5.2-3.5-6.9c-2.7-2.4-5.5-2.9-9.6-2.9h-8.7v24.2H21c3.6,0,6-0.5,8.7-3
		c1.9-1.8,3.1-4,3.5-6.7v9.6h13.9v-5.3h-7.6v-4.4l6.6,0v-5.2l-6.6,0v-3.9l7.6,0v-5.3H33.3V21.2z M20.2,30.3h-2.5V16.6h2.5
		c4.6,0,7.1,2.5,7.1,6.8C27.2,28.2,25,30.3,20.2,30.3z M66.9,26.3C66,27.7,64,30,60.9,29.9c-4.9-0.1-6.8-3.5-6.8-6.5
		c0-3.5,2.8-6.4,6.4-6.5c4.1-0.1,7.1,3.8,7.1,3.8l3.2-5.1c0,0-3.6-4.9-10.3-4.7c-10,0.2-12.9,8.6-12.9,12.4
		c0,8.1,6.3,12.2,11.4,12.7c7.4,0.7,11.5-4.1,11.5-4.1s-0.1,0,0.2,0c1.5,0,5.4,0,5.4,0v3.6h6V11.4h-6.5C75.7,11.4,67.7,25,66.9,26.3
		z M76.3,26.9h-3.2l3.2-5.5V26.9z M83.5,11.4h15.9v5.8h-4.8v18.4h-6.2V17.2h-4.9V11.4z M113.5,11.4h6.2v24.2h-6.2v-9.2H107v9.2h-6.2
		V11.4h6.2v9.2h6.4V11.4z M171.3,11.4v13.4l-9.4-13.4h-5.6v8.2c-0.6-1.9-1.7-3.7-3.2-5.1c-2.4-2.3-5.5-3.6-8.8-3.6
		c-3.5,0-6.5,1.2-9,3.6c-2.4,2.4-3.7,5.4-3.7,8.8c0,2.6,0.6,5,1.9,7h-5.6V11.4h-6.2v24.2h13.5v-3.2c2.4,2.5,5.5,3.7,9.1,3.7
		c3.4,0,6.7-1.3,9.1-3.8c1.4-1.4,2.4-3.1,3-5v8.3h6.3V22.1l9.5,13.5h5.5V11.4H171.3z M144.2,30.1c-3.4,0-6.5-2.9-6.5-6.8
		c0-3.6,2.9-6.4,6.5-6.4c3.5,0,6.3,2.8,6.3,6.4C150.6,27.3,147.7,30.1,144.2,30.1z"/>
</g>
</svg>

<?xml version="1.0" encoding="UTF-8"?>
<svg width="167px" height="27px" viewBox="0 0 167 27" version="1.1" xmlns="http://www.w3.org/2000/svg" xmlns:xlink="http://www.w3.org/1999/xlink">
    <!-- Generator: Sketch 51.3 (57544) - http://www.bohemiancoding.com/sketch -->
    <title>decathlon-logo</title>
    <desc>Created with Sketch.</desc>
    <defs></defs>
    <g id="Page-1" stroke="none" stroke-width="1" fill="none" fill-rule="evenodd">
        <g id="decathlon-logo" transform="translate(-11.000000, -10.000000)" fill="#FFFFFF" fill-rule="nonzero">
            <path d="M33.3,21.2 C32.9,18.4 31.7,16 29.8,14.3 C27.1,11.9 24.3,11.4 20.2,11.4 L11.5,11.4 L11.5,35.6 L21,35.6 C24.6,35.6 27,35.1 29.7,32.6 C31.6,30.8 32.8,28.6 33.2,25.9 L33.2,35.5 L47.1,35.5 L47.1,30.2 L39.5,30.2 L39.5,25.8 L46.1,25.8 L46.1,20.6 L39.5,20.6 L39.5,16.7 L47.1,16.7 L47.1,11.4 L33.3,11.4 L33.3,21.2 Z M20.2,30.3 L17.7,30.3 L17.7,16.6 L20.2,16.6 C24.8,16.6 27.3,19.1 27.3,23.4 C27.2,28.2 25,30.3 20.2,30.3 Z M66.9,26.3 C66,27.7 64,30 60.9,29.9 C56,29.8 54.1,26.4 54.1,23.4 C54.1,19.9 56.9,17 60.5,16.9 C64.6,16.8 67.6,20.7 67.6,20.7 L70.8,15.6 C70.8,15.6 67.2,10.7 60.5,10.9 C50.5,11.1 47.6,19.5 47.6,23.3 C47.6,31.4 53.9,35.5 59,36 C66.4,36.7 70.5,31.9 70.5,31.9 C70.5,31.9 70.4,31.9 70.7,31.9 C72.2,31.9 76.1,31.9 76.1,31.9 L76.1,35.5 L82.1,35.5 L82.1,11.4 L75.6,11.4 C75.7,11.4 67.7,25 66.9,26.3 Z M76.3,26.9 L73.1,26.9 L76.3,21.4 L76.3,26.9 Z M83.5,11.4 L99.4,11.4 L99.4,17.2 L94.6,17.2 L94.6,35.6 L88.4,35.6 L88.4,17.2 L83.5,17.2 L83.5,11.4 Z M113.5,11.4 L119.7,11.4 L119.7,35.6 L113.5,35.6 L113.5,26.4 L107,26.4 L107,35.6 L100.8,35.6 L100.8,11.4 L107,11.4 L107,20.6 L113.4,20.6 L113.4,11.4 L113.5,11.4 Z M171.3,11.4 L171.3,24.8 L161.9,11.4 L156.3,11.4 L156.3,19.6 C155.7,17.7 154.6,15.9 153.1,14.5 C150.7,12.2 147.6,10.9 144.3,10.9 C140.8,10.9 137.8,12.1 135.3,14.5 C132.9,16.9 131.6,19.9 131.6,23.3 C131.6,25.9 132.2,28.3 133.5,30.3 L127.9,30.3 L127.9,11.4 L121.7,11.4 L121.7,35.6 L135.2,35.6 L135.2,32.4 C137.6,34.9 140.7,36.1 144.3,36.1 C147.7,36.1 151,34.8 153.4,32.3 C154.8,30.9 155.8,29.2 156.4,27.3 L156.4,35.6 L162.7,35.6 L162.7,22.1 L172.2,35.6 L177.7,35.6 L177.7,11.4 L171.3,11.4 Z M144.2,30.1 C140.8,30.1 137.7,27.2 137.7,23.3 C137.7,19.7 140.6,16.9 144.2,16.9 C147.7,16.9 150.5,19.7 150.5,23.3 C150.6,27.3 147.7,30.1 144.2,30.1 Z" id="Shape"></path>
        </g>
    </g>
</svg>
